24x24/panel/pcloud-pause.svg

<svg height="24" width="24" xmlns="http://www.w3.org/2000/svg"><g fill="#bebebe"><path d="m12.5 5a6.5 6.5 0 0 0 -6.01 4.031 5 5 0 0 0 -4.49 4.97 5 5 0 0 0 5 5h6.424a5 5 0 0 1 -.424-2.001 5 5 0 0 1 .113-1.048 4.5 4.5 0 0 1 -.613.048 4.5 4.5 0 0 1 -4.5-4.5 4.5 4.5 0 0 1 4.5-4.5 4.5 4.5 0 0 1 4.5 4.5 4.5 4.5 0 0 1 -.049.617 5 5 0 0 1 1.049-.117 5 5 0 0 1 2.49.67 3 3 0 0 0 .51-1.67 3 3 0 0 0 -3-3 3 3 0 0 0 -.023 0 6.5 6.5 0 0 0 -5.477-3zm0 3a3.5 3.5 0 0 0 -3.5 3.5 3.5 3.5 0 0 0 3.5 3.5 3.5 3.5 0 0 0 .99-.144 5 5 0 0 1 2.365-2.366 3.5 3.5 0 0 0 .145-.99 3.5 3.5 0 0 0 -3.5-3.5zm-1.5 1h2.5a1.5 1.5 0 0 1 1.5 1.5 1.5 1.5 0 0 1 -1.5 1.5h-1.5v2h-1v-2zm1 1v1h1.5a.5.5 0 0 0 .5-.5.5.5 0 0 0 -.5-.5z" opacity=".3"/><path d="m16 15h1v4h-1zm3 0h1v4h-1z"/></g></svg>

<svg xmlns="http://www.w3.org/2000/svg" width="24" height="24"><defs><style id="current-color-scheme" type="text/css">.ColorScheme-Text{color:#bebebe}</style></defs><path class="ColorScheme-Text" d="M12.5 5a6.5 6.5 0 0 0-6.01 4.031A5 5 0 0 0 2 14.001a5 5 0 0 0 5 5h6.424A5 5 0 0 1 13 17a5 5 0 0 1 .113-1.048A4.5 4.5 0 0 1 12.5 16 4.5 4.5 0 0 1 8 11.5 4.5 4.5 0 0 1 12.5 7a4.5 4.5 0 0 1 4.5 4.5 4.5 4.5 0 0 1-.049.617A5 5 0 0 1 18 12a5 5 0 0 1 2.49.67A3 3 0 0 0 21 11a3 3 0 0 0-3-3 3 3 0 0 0-.023 0A6.5 6.5 0 0 0 12.5 5zm0 3A3.5 3.5 0 0 0 9 11.5a3.5 3.5 0 0 0 3.5 3.5 3.5 3.5 0 0 0 .99-.144 5 5 0 0 1 2.365-2.366A3.5 3.5 0 0 0 16 11.5 3.5 3.5 0 0 0 12.5 8zM11 9h2.5a1.5 1.5 0 0 1 1.5 1.5 1.5 1.5 0 0 1-1.5 1.5H12v2h-1v-2zm1 1v1h1.5a.5.5 0 0 0 .5-.5.5.5 0 0 0-.5-.5z" opacity=".3" fill="currentColor"/><path class="ColorScheme-Text" d="M18.28 13.008zM16 15h1v4h-1zm3 0h1v4h-1z" fill="currentColor"/></svg>
